**kern	**kern	**kern	**kern
*staff3	*staff4	*staff1	*staff2
*clefF4	*clefF4	*clefG2	*clefG2
*k[f#c#]	*k[f#c#]	*k[f#c#]	*k[f#c#]
*M2/4	*M2/4	*M2/4	*M2/4
*D:	*D:	*D:	*D:
=-	=-	=-	=-
2r	(16DLL	4f# 4ff#	2r
.	16d	.	.
.	16F#	.	.
.	16DJJ	.	.
.	16c#LL	8.aL 8.aa	.
.	16E	.	.
.	16C#	.	.
.	16c#JJ)	16aJk 16aa	.
=388	=388	=388	=388
2r	(16BBLL	(4d 4dd	2r
.	16B	.	.
.	16D	.	.
.	16BBJJ	.	.
.	16ALL	4f#) 4ff#	.
.	16C#	.	.
.	16AA	.	.
.	16AJJ)	.	.
=389	=389	=389	=389
2r	(16GGLL	4B 4b	2r
.	16G	.	.
.	16BB	.	.
.	16GGJJ	.	.
.	16GLL	8.c#L 8.cc#	.
.	16BB-	.	.
.	16GG	.	.
.	16GJJ)	16c#Jk 16cc#	.
=390	=390	=390	=390
2r	(16FF#LL	(4d 4dd	2r
.	16F#	.	.
.	16AA	.	.
.	16GGJJ	.	.
.	16FFLL	8A) 8a	.
.	16F	.	.
.	16AA	8r	.
.	16FFJJ)	.	.
=391	=391	=391	=391
2r	(16FF#LL	4A 4a	2r
.	16F#	.	.
.	16AA	.	.
.	16FF#JJ	.	.
.	16DLL	8.AL 8.a	.
.	16FF#	.	.
.	16DD	.	.
.	16DJJ)	16AJk 16a	.
=392	=392	=392	=392
2r	(16CC#LL	2A 2a	2r
.	16C#	.	.
.	16EE	.	.
.	16CC#JJ	.	.
.	16DLL	.	.
.	16FF#	.	.
.	16DD	.	.
.	16DJJ)	.	.
=393	=393	=393	=393
2r	(16BBBLL	4d 4dd	2r
.	16BB	.	.
.	16DD	.	.
.	16BBBJJ	.	.
.	16BB-LL	8.dL 8.dd	.
.	16DD	.	.
.	16BBB-	.	.
.	16BB-JJ)	16dJk 16dd	.
=394	=394	=394	=394
2r	(16AAALL	8a 8aa	2r
.	16CC#	.	.
.	16EE	8r	.
.	16AAJJ)	.	.
.	8AAA	4r	.
.	8r	.	.
=395:|!|:	=395:|!|:	=395:|!|:	=395:|!|:
*-	*-	*-	*-
